X:1
T:D-dur Polska
R:polska boda
C:efter Rjs Erik Andersson
M:3/4
L:1/16
Q:1/4=115
K:D
P:A
|: "D" D4 (D3F) (A3d)-|f4 ({g}f3e) d4|D4 (D3F) (A3F)|"G" G4 (B3A) G3B\
|  "A" ({B}A4) (A3c) e3f|g4 ({a}g3f) e3d|({d}c4) (c3B) G4|"D" B4 ({B}B3A) (F3A)\
|  D4 (D3F) (A3d)-|f4 ({g}f3e) d4|D4 (D3F) (A3F)|"G" G4 ({c}B3A) G4{B}\
|  "A" ({B}A4) (A3c) e3f|g4 ({a}g3f) e3d|{d}c4) (c3A) B3c|"D" d4 d8 :|
P:B
|: "G" {f}g4 B6 g2-|"D" f4 A6 d2-|"A" c4 ({d}c3A) B3c|"D" (d3c) (d3e) f3a\
|  "G" g4 B6 g2-|"D" f4 A6 d2-|"A" c3(d c3A) B3c|"D" d4 d8:||
